images/Simplex-logo.svg

<svg width="165" height="60" viewBox="0 0 165 60" fill="none" xmlns="http://www.w3.org/2000/svg">
<path d="M23.5981 4.51583C23.5981 2.01009 25.6082 0 28.114 0C30.6197 0 32.6849 2.01009 32.6849 4.51583C32.6849 7.02157 30.6197 9.08674 28.114 9.08674C25.6082 9.11427 23.5981 7.0491 23.5981 4.51583Z" fill="white"/>
<path d="M104.635 1.84473V36.1265H112.565V1.84473H104.635Z" fill="white"/>
<path d="M0 32.9048L3.30427 27.2601C5.14914 28.9122 9.1143 30.5919 12.033 30.5919C14.4011 30.5919 15.3649 29.931 15.3649 28.8571C15.3649 27.7587 13.5311 27.4567 11.1698 27.0678C6.90117 26.3648 0.908687 25.3779 0.908687 18.8893C0.908687 14.5111 4.70861 10.7112 11.5649 10.7112C15.7779 10.7112 19.2749 12.0604 21.9458 14.0155L18.9169 19.6327C17.43 18.2009 14.5939 16.9067 11.62 16.9067C9.77513 16.9067 8.53603 17.6226 8.53603 18.6139C8.53603 19.5433 10.2099 19.8261 12.4162 20.199C16.6815 20.9199 22.9371 21.9771 22.9371 28.6919C22.9371 33.428 18.7792 36.8149 11.6751 36.8149C7.18681 36.7598 2.61588 35.2729 0 32.9048Z" fill="white"/>
<path d="M32.1065 11.317H24.1762V36.154H32.1065V11.317Z" fill="white"/>
<path d="M66.3332 21.037V36.1816H74.2084V18.1733C74.2084 13.0792 71.3171 10.7112 66.7463 10.7112C62.8362 10.7112 59.587 12.9966 58.1552 15.1444C57.1088 12.1981 54.7132 10.7112 51.106 10.7112C47.196 10.7112 44.0019 12.9416 42.928 14.3734C42.7077 14.6212 42.4048 14.9792 42.1019 15.3647L42.928 13.5198V11.3445H34.9977V36.1816H42.928V20.1284C43.7265 19.082 45.241 17.7052 47.3887 17.7052C49.7568 17.7052 50.638 19.1371 50.638 21.037V36.1816H58.5682V20.1284C59.3392 19.082 60.8812 17.7052 63.029 17.7052C65.397 17.7052 66.3332 19.1371 66.3332 21.037Z" fill="white"/>
<path fill-rule="evenodd" clip-rule="evenodd" d="M85.0849 33.2078C84.8922 32.9599 84.7545 32.657 84.6168 32.3541L85.0849 35.1077V45.6263H77.1547V11.317H85.0849V14.2082C87.0399 11.8402 89.6007 10.7112 92.4369 10.7112C98.66 10.7112 103.341 15.3372 103.341 23.708C103.341 32.1339 98.66 36.7598 92.4369 36.7598C89.6558 36.7598 87.1501 35.686 85.0849 33.2078ZM95.2731 23.708C95.2731 20.0182 92.905 17.7052 89.821 17.7052C88.1138 17.7052 86.0762 18.6414 85.0849 19.9631V27.5079C86.0487 28.8021 88.1138 29.7658 89.821 29.7658C92.905 29.7658 95.2731 27.4528 95.2731 23.708Z" fill="white"/>
<path fill-rule="evenodd" clip-rule="evenodd" d="M113.887 23.708C113.887 16.5212 119.284 10.7112 127.049 10.7112C134.401 10.7112 139.743 16.1082 139.743 24.534V26.3239H122.671L122.01 25.4427C121.983 25.7181 121.983 25.9934 122.065 26.3239C122.643 28.5267 124.681 30.3991 128.288 30.3991C130.023 30.3991 132.914 29.6281 134.346 28.2789L137.788 33.4831C135.31 35.686 131.207 36.7874 127.407 36.7874C119.725 36.7598 113.887 31.7759 113.887 23.708ZM127.049 17.0719C123.607 17.0719 122.258 19.1371 121.955 20.9269H132.198C131.978 19.1921 130.684 17.0719 127.049 17.0719Z" fill="white"/>
<path d="M151.143 28.6368L155.879 36.154H164.553L156.072 23.4051L164.002 11.317H155.301L151.391 17.5675V18.5313L151.088 18.0632L146.82 11.317H138.146L146.104 23.4051L137.623 36.154H146.269L151.143 28.6368Z" fill="white"/>
<path d="M161.716 46.0118C161.716 45.1858 162.377 44.5249 163.203 44.5249C164.029 44.5249 164.69 45.1858 164.69 46.0118C164.69 46.8379 164.029 47.4987 163.203 47.4987C162.377 47.4712 161.716 46.8379 161.716 46.0118Z" fill="white"/>
<path fill-rule="evenodd" clip-rule="evenodd" d="M104.635 56.6956V45.4336H106.398V49.6741C107.058 48.7929 107.995 48.3524 109.013 48.3524C111.134 48.3524 112.648 50.0045 112.648 52.6204C112.648 55.3189 111.106 56.9159 109.013 56.9159C107.967 56.9159 107.031 56.4203 106.398 55.5942V56.6956H104.635ZM108.518 55.3189C109.922 55.3189 110.803 54.1899 110.803 52.5928C110.803 51.0233 109.895 49.8944 108.518 49.8944C107.664 49.8944 106.811 50.39 106.398 50.9958V54.245C106.811 54.8508 107.664 55.3189 108.518 55.3189Z" fill="white"/>
<path d="M133.272 51.932C133.272 50.9407 132.749 50.5827 131.951 50.5827C131.18 50.5827 130.684 50.9958 130.381 51.3813V56.613H127.793V48.49H130.381V49.206L130.051 49.8117C130.546 49.2335 131.813 48.2973 133.162 48.2973C135.007 48.2973 135.861 49.3712 135.861 50.8581V56.613H133.272V51.932Z" fill="white"/>
<path d="M142.111 55.429C141.616 56.0072 140.404 56.8333 139.055 56.8333C137.21 56.8333 136.384 55.787 136.384 54.3V48.5176H138.972V53.2261C138.972 54.1899 139.468 54.5479 140.321 54.5479C141.065 54.5479 141.56 54.1348 141.863 53.7493V48.5176H144.452V56.6406H141.863V56.0072L142.111 55.429Z" fill="white"/>
<path fill-rule="evenodd" clip-rule="evenodd" d="M161.386 52.8131C161.386 50.0596 159.624 48.2973 157.228 48.2973C154.695 48.2973 152.933 50.1972 152.96 52.5378C152.96 55.1812 154.888 56.8058 157.393 56.8058C158.633 56.8058 159.982 56.4478 160.78 55.7319L159.679 54.1073C159.238 54.5203 158.412 54.7957 157.696 54.7957C156.512 54.7957 155.824 54.1348 155.631 53.4189C155.604 53.3088 155.576 53.1711 155.576 53.0609L155.796 53.3638H161.386V52.8131ZM158.908 51.7117H155.576C155.686 51.1059 156.099 50.3074 157.228 50.3074C158.412 50.3074 158.853 51.1334 158.908 51.7117Z" fill="white"/>
<path d="M161.909 48.5176H164.498V56.6406H161.909V48.5176Z" fill="white"/>
<path d="M149.105 53.3363L150.84 48.5176H153.593L150.399 56.613H147.646L144.975 49.8117V48.5176H147.178L149.16 54.0798L149.105 53.3363Z" fill="white"/>
<path d="M115.154 58.4304C114.934 58.4304 114.658 58.3753 114.465 58.2927L114.245 59.8898C114.465 59.9448 114.989 59.9999 115.236 59.9999C116.503 59.9724 117.467 59.5318 118.018 58.155L121.955 48.5176H120.055L117.66 54.6305L115.292 48.5176H113.392L116.751 56.7782L116.338 57.7145C116.09 58.2652 115.732 58.4304 115.154 58.4304Z" fill="white"/>
</svg>

<svg xmlns="http://www.w3.org/2000/svg" width="165" height="60" fill="none"><path fill="#fff" d="M23.598 4.516A4.5 4.5 0 0 1 28.114 0c2.506 0 4.57 2.01 4.57 4.516 0 2.506-2.064 4.57-4.57 4.57-2.506.028-4.516-2.037-4.516-4.57ZM104.635 1.845v34.282h7.93V1.845h-7.93ZM0 32.905l3.304-5.645c1.845 1.652 5.81 3.332 8.729 3.332 2.368 0 3.332-.661 3.332-1.735 0-1.098-1.834-1.4-4.195-1.79C6.9 26.366.909 25.378.909 18.89c0-4.378 3.8-8.178 10.656-8.178 4.213 0 7.71 1.35 10.38 3.304l-3.028 5.618c-1.487-1.432-4.323-2.726-7.297-2.726-1.845 0-3.084.716-3.084 1.707 0 .93 1.674 1.212 3.88 1.585 4.265.72 10.521 1.778 10.521 8.493 0 4.736-4.158 8.123-11.262 8.123-4.488-.055-9.06-1.542-11.675-3.91ZM32.106 11.317h-7.93v24.837h7.93V11.317ZM66.333 21.037v15.145h7.875V18.173c0-5.094-2.89-7.462-7.462-7.462-3.91 0-7.159 2.286-8.59 4.433-1.047-2.946-3.443-4.433-7.05-4.433-3.91 0-7.104 2.23-8.178 3.662-.22.248-.523.606-.826.992l.826-1.845v-2.175h-7.93v24.837h7.93V20.128c.799-1.046 2.313-2.423 4.46-2.423 2.369 0 3.25 1.432 3.25 3.332v15.145h7.93V20.128c.771-1.046 2.313-2.423 4.461-2.423 2.368 0 3.304 1.432 3.304 3.332Z"/><path fill="#fff" fill-rule="evenodd" d="M85.085 33.208c-.193-.248-.33-.551-.468-.854l.468 2.754v10.518h-7.93V11.317h7.93v2.891c1.955-2.368 4.516-3.497 7.352-3.497 6.223 0 10.904 4.626 10.904 12.997 0 8.426-4.681 13.052-10.904 13.052-2.781 0-5.287-1.074-7.352-3.552Zm10.188-9.5c0-3.69-2.368-6.003-5.452-6.003-1.707 0-3.745.936-4.736 2.258v7.545c.964 1.294 3.029 2.258 4.736 2.258 3.084 0 5.452-2.313 5.452-6.058ZM113.887 23.708c0-7.187 5.397-12.997 13.162-12.997 7.352 0 12.694 5.397 12.694 13.823v1.79h-17.072l-.661-.881a2.48 2.48 0 0 0 .055.88c.578 2.204 2.616 4.076 6.223 4.076 1.735 0 4.626-.77 6.058-2.12l3.442 5.204c-2.478 2.203-6.581 3.304-10.381 3.304-7.682-.027-13.52-5.011-13.52-13.079Zm13.162-6.636c-3.442 0-4.791 2.065-5.094 3.855h10.243c-.22-1.735-1.514-3.855-5.149-3.855Z" clip-rule="evenodd"/><path fill="#fff" d="m151.143 28.637 4.736 7.517h8.674l-8.481-12.749 7.93-12.088h-8.701l-3.91 6.25v.964l-.303-.468-4.268-6.746h-8.674l7.958 12.088-8.481 12.749h8.646l4.874-7.517ZM161.716 46.012a1.48 1.48 0 0 1 1.487-1.487c.826 0 1.487.66 1.487 1.487a1.48 1.48 0 0 1-1.487 1.487c-.826-.028-1.487-.661-1.487-1.487Z"/><path fill="#fff" fill-rule="evenodd" d="M104.635 56.696V45.434h1.763v4.24c.66-.881 1.597-1.322 2.615-1.322 2.121 0 3.635 1.653 3.635 4.268 0 2.699-1.542 4.296-3.635 4.296-1.046 0-1.982-.496-2.615-1.322v1.102h-1.763Zm3.883-1.377c1.404 0 2.285-1.13 2.285-2.726 0-1.57-.908-2.699-2.285-2.699-.854 0-1.707.496-2.12 1.102v3.249c.413.606 1.266 1.074 2.12 1.074Z" clip-rule="evenodd"/><path fill="#fff" d="M133.272 51.932c0-.991-.523-1.35-1.321-1.35-.771 0-1.267.414-1.57.8v5.231h-2.588V48.49h2.588v.716l-.33.606c.495-.578 1.762-1.515 3.111-1.515 1.845 0 2.699 1.074 2.699 2.561v5.755h-2.589v-4.681ZM142.111 55.429c-.495.578-1.707 1.404-3.056 1.404-1.845 0-2.671-1.046-2.671-2.533v-5.782h2.588v4.708c0 .964.496 1.322 1.349 1.322.744 0 1.239-.413 1.542-.799v-5.231h2.589v8.123h-2.589v-.634l.248-.578Z"/><path fill="#fff" fill-rule="evenodd" d="M161.386 52.813c0-2.753-1.762-4.516-4.158-4.516-2.533 0-4.295 1.9-4.268 4.24 0 2.644 1.928 4.269 4.433 4.269 1.24 0 2.589-.358 3.387-1.074l-1.101-1.625c-.441.413-1.267.689-1.983.689-1.184 0-1.872-.661-2.065-1.377a1.643 1.643 0 0 1-.055-.358l.22.303h5.59v-.55Zm-2.478-1.101h-3.332c.11-.606.523-1.405 1.652-1.405 1.184 0 1.625.826 1.68 1.405Z" clip-rule="evenodd"/><path fill="#fff" d="M161.909 48.518h2.589v8.123h-2.589v-8.123ZM149.105 53.336l1.735-4.818h2.753l-3.194 8.095h-2.753l-2.671-6.801v-1.294h2.203l1.982 5.562-.055-.744ZM115.154 58.43c-.22 0-.496-.055-.689-.137l-.22 1.597c.22.055.744.11.991.11 1.267-.028 2.231-.468 2.782-1.845l3.937-9.637h-1.9l-2.395 6.112-2.368-6.112h-1.9l3.359 8.26-.413.937c-.248.55-.606.715-1.184.715Z"/></svg>
